Production/EA4S_WordDrawings/SVG/singles_SVG/leg.svg

<?xml version="1.0" encoding="UTF-8" standalone="no"?><!DOCTYPE svg PUBLIC "-//W3C//DTD SVG 1.1//EN" "http://www.w3.org/Graphics/SVG/1.1/DTD/svg11.dtd"><svg width="100%" height="100%" viewBox="0 0 145 557" version="1.1" xmlns="http://www.w3.org/2000/svg" xmlns:xlink="http://www.w3.org/1999/xlink" xml:space="preserve" style="fill-rule:evenodd;clip-rule:evenodd;stroke-linejoin:round;stroke-miterlimit:1.41421;"><g id="leg"><path d="M117.923,190.209c0.279,8.629 3.252,17.053 5.839,25.208c2.678,8.44 5.432,16.835 7.402,25.478c4.61,20.219 2.575,41.392 -1.208,61.547c-3.788,20.175 -9.417,39.956 -12.709,60.232c-3.278,20.198 -3.279,40.842 -3.428,61.25c2.813,-1.244 5.627,-2.489 8.441,-3.733c-0.912,-1.947 -1.779,-3.664 -3.158,-5.326c-2.082,-2.511 -6.252,0.962 -6.084,3.495c0.15,2.283 0.336,4.331 1,6.528c1.476,4.882 8.467,-0.248 8.441,-3.733c-0.15,-20.971 -0.03,-41.944 3.399,-62.687c3.345,-20.226 8.942,-40.001 12.471,-60.194c3.343,-19.137 4.616,-39.002 0.432,-58.113c-1.896,-8.658 -4.783,-17 -8.135,-25.196c-3.485,-8.523 -6.417,-17.479 -10.515,-25.724c-0.572,-1.155 -2.219,-0.022 -2.188,0.968Z" style="fill:#010101;fill-rule:nonzero;"/><path d="M54.709,182.312c-2.284,10.344 -4.734,20.408 -7.65,30.595c-2.91,10.162 -5.434,20.195 -6.72,30.702c-2.689,21.975 -1.848,44.12 1.682,65.944c3.451,21.342 9.332,42.399 16.207,62.873c3.379,10.063 6.889,20.075 9.777,30.295c2.849,10.078 5.697,21.319 5.029,31.887c-0.349,5.516 8.505,1.673 8.789,-2.817c0.239,-3.792 -2.68,-6.659 -5.628,-8.463c-2.111,-1.292 -5.335,1.437 -5.096,3.664c0.262,2.449 2.021,5.292 1.935,7.616c-0.207,5.557 8.621,1.701 8.789,-2.817c0.353,-9.509 -2.022,-19.438 -4.339,-28.593c-2.603,-10.286 -6.162,-20.315 -9.594,-30.344c-7.175,-20.97 -13.443,-42.35 -17.294,-64.2c-3.817,-21.657 -4.691,-43.804 -2.421,-65.68c1.086,-10.46 3.327,-20.485 5.998,-30.644c2.563,-9.748 5.325,-20.634 4.21,-30.761c-0.254,-2.319 -3.333,-0.799 -3.674,0.743Z" style="fill:#010101;fill-rule:nonzero;"/><path d="M13.895,13.931c0.138,3.468 -0.5,7.335 -0.658,10.825c-0.157,3.484 0.269,7.08 0.468,10.559c0.437,7.646 1.113,15.277 1.838,22.9c1.431,15.033 3.558,29.961 6.682,44.74c3.084,14.588 7.101,28.909 12.335,42.877c5.015,13.382 12.068,25.75 16.811,39.194c2.547,-1.819 5.096,-3.638 7.644,-5.457c-1.062,-1.743 -2.347,-1.629 -4.216,-1.815c-1.92,-0.192 -4.603,1.546 -4.285,3.76c0.094,0.652 0.634,2.406 0.66,2.562c0.921,5.457 9.391,1.623 8.532,-2.735c-1.107,-5.607 -4.377,-10.872 -7.001,-15.911c-3.481,-6.683 -6.703,-13.428 -9.579,-20.396c-5.666,-13.727 -9.917,-28.014 -13.407,-42.434c-3.547,-14.651 -5.991,-29.584 -8.145,-44.496c-1.086,-7.522 -1.893,-15.079 -2.781,-22.627c-0.405,-3.445 -0.787,-6.894 -1.199,-10.339c-0.467,-3.902 -2.009,-7.762 -2.402,-11.622c-0.088,-0.844 -1.324,-0.246 -1.297,0.415Z" style="fill:#010101;fill-rule:nonzero;"/><path d="M38.737,520.508c-5.703,4.604 -11.271,9.635 -18.577,11.599c-1.66,0.446 -3.439,2.175 -3.69,3.923c-1.833,12.762 9.823,19.768 20.979,20.055c11.603,0.299 24.305,-6.754 28.553,-17.813c-1.639,1.182 -3.278,2.363 -4.917,3.545c14.096,-0.051 25.534,-2.785 35.642,-13.084c5.821,-5.932 10.733,-12.59 16.894,-18.215c6.863,-6.267 14.841,-10.697 23.751,-13.295c-0.526,-2.539 -1.054,-5.079 -1.58,-7.619c-2.59,1.565 -5.229,3.005 -7.727,4.723c-2.034,1.4 -3.45,5.431 0.305,5.418c3.816,-0.013 6.901,-1.066 10.142,-3.025c3.799,-2.296 4.222,-9.311 -1.58,-7.619c-16.081,4.688 -28.472,14.915 -39.285,27.375c-4.57,5.264 -8.852,10.745 -15.166,13.996c-5.799,2.985 -13.236,2.735 -19.558,2.764c-1.936,0.009 -4.247,1.762 -4.917,3.545c-2.902,7.712 -11.015,10.818 -18.764,10.938c-3.698,0.058 -7.251,-1.168 -10.259,-3.258c-3.705,-2.574 -4.002,-6.912 -4.844,-10.9c-0.858,1.771 -1.717,3.545 -2.575,5.316c6.967,-3.671 17.461,-8.971 18.937,-17.738c0.197,-1.169 -1.091,-1.175 -1.764,-0.631Z" style="fill:#010101;fill-rule:nonzero;"/><path d="M75.497,426.485c-1.195,4.229 -1.225,8.463 -3.029,12.565c-1.631,3.71 -4.327,6.886 -7.304,9.583c-6.575,5.955 -14.822,9.884 -22.72,13.751c-12.1,5.925 -35.192,15.022 -35.433,31.489c-0.07,4.847 7.056,2.275 8.133,-0.658c2.559,-6.973 6.355,-10.8 12.721,-14.732c7.992,-4.937 16.665,-8.727 24.872,-13.285c7.933,-4.406 15.808,-9.643 21.276,-17.017c4.155,-5.604 7.849,-16.165 3.33,-22.523c-0.56,-0.787 -1.683,0.245 -1.846,0.827Z" style="fill:#010101;fill-rule:nonzero;"/><path d="M34.359,505.501c-10.36,4.888 -25.413,10.95 -24.891,24.801c0.21,5.589 8.891,1.733 8.721,-2.795c-0.344,-9.124 12.373,-14.28 17.187,-20.848c0.626,-0.854 -0.129,-1.576 -1.017,-1.158Z" style="fill:#010101;fill-rule:nonzero;"/><path d="M25.895,494.93c-2.43,0.043 -5.007,2.164 -6.948,3.442c-3.009,1.982 -5.986,3.979 -8.833,6.193c-3.412,2.655 -11.132,11.297 -4.575,13.831c3.138,1.214 7.175,-1.996 6.157,-5.402c0.838,2.806 0.19,-0.908 0.094,-0.243c-0.058,0.402 0.326,-0.349 0.785,-0.906c1.614,-1.962 3.795,-3.635 5.72,-5.288c2.456,-2.109 9.518,-6.824 8.741,-10.707c-0.127,-0.627 -0.49,-0.932 -1.141,-0.92Z" style="fill:#010101;fill-rule:nonzero;"/><path d="M21.754,490.335c-8.022,-1.64 -16.886,2.726 -20.641,9.902c-2.895,5.533 6.107,6.393 7.841,1.463c1.755,-4.992 8.234,-6.632 12.583,-8.704c0.956,-0.455 1.676,-2.362 0.217,-2.661Z" style="fill:#010101;fill-rule:nonzero;"/><path d="M140.28,0.579c-4.179,23.053 -5.069,46.75 -7.81,70.068c-2.839,24.158 -6.533,48.209 -10.278,72.24c-1.549,9.934 -3.063,19.849 -4.339,29.82c-1.218,9.518 -2.712,19.808 -7.939,28.063c-3.455,5.457 -9.504,8.049 -15.317,10.414c-2.813,1.144 -5.69,2.129 -8.589,3.03c-1.182,0.366 -2.374,0.695 -3.572,1.001c-2.079,0.528 -0.582,-0.232 0.612,1.035c-2.674,-2.837 -8.527,2.336 -5.873,5.153c2.549,2.706 10.112,-0.955 12.772,-1.86c7.044,-2.396 14.007,-5.426 20.013,-9.863c6.501,-4.804 9.662,-13.607 11.736,-21.071c2.832,-10.19 3.323,-20.927 4.934,-31.342c4.093,-26.461 8.188,-52.921 11.417,-79.504c1.57,-12.917 2.877,-25.854 3.792,-38.834c0.44,-6.241 0.772,-12.505 0.939,-18.759c0.184,-6.881 -0.439,-13.059 -1.5,-19.793c-0.095,-0.609 -0.918,-0.242 -0.998,0.202Z" style="fill:#010101;fill-rule:nonzero;"/><path d="M116.169,414.721c-3.857,5.102 -1.618,12.63 0.13,18.128c2.491,7.83 6.05,15.289 9.479,22.737c3.214,6.98 6.447,14.016 8.488,21.445c0.768,2.792 1.115,5.66 1.021,8.554c-0.082,2.523 -2.129,5.138 -0.135,7.41c0.794,0.905 2.013,0.884 3.077,0.604c6.23,-1.644 6.352,-10.337 5.727,-15.429c-0.917,-7.475 -4.091,-14.632 -7.133,-21.44c-3.549,-7.943 -7.478,-15.717 -10.805,-23.759c-1.53,-3.7 -2.78,-7.506 -3.962,-11.328c-0.817,-2.649 -1.514,-5.896 -3.883,-7.588c-0.634,-0.454 -1.623,0.163 -2.004,0.666Z" style="fill:#010101;fill-rule:nonzero;"/></g></svg>

<?xml version="1.0" encoding="UTF-8"?>
<svg width="145px" height="557px" viewBox="0 0 145 557" version="1.1" xmlns="http://www.w3.org/2000/svg" xmlns:xlink="http://www.w3.org/1999/xlink">
    <!-- Generator: Sketch 41 (35326) - http://www.bohemiancoding.com/sketch -->
    <title>leg</title>
    <desc>Created with Sketch.</desc>
    <defs></defs>
    <g id="Page-1" stroke="none" stroke-width="1" fill="none" fill-rule="evenodd">
        <g id="Layer_1" transform="translate(-2916.000000, -4730.000000)" fill="#010101">
            <g id="Layer_1_3_">
                <g id="leg" transform="translate(2916.000000, 4730.000000)">
                    <path d="M117.923,190.209 C118.202,198.838 121.175,207.262 123.762,215.417 C126.44,223.857 129.194,232.252 131.164,240.895 C135.774,261.114 133.739,282.287 129.956,302.442 C126.168,322.617 120.539,342.398 117.247,362.674 C113.969,382.872 113.968,403.516 113.819,423.924 C116.632,422.68 119.446,421.435 122.26,420.191 C121.348,418.244 120.481,416.527 119.102,414.865 C117.02,412.354 112.85,415.827 113.018,418.36 C113.168,420.643 113.354,422.691 114.018,424.888 C115.494,429.77 122.485,424.64 122.459,421.155 C122.309,400.184 122.429,379.211 125.858,358.468 C129.203,338.242 134.8,318.467 138.329,298.274 C141.672,279.137 142.945,259.272 138.761,240.161 C136.865,231.503 133.978,223.161 130.626,214.965 C127.141,206.442 124.209,197.486 120.111,189.241 C119.539,188.086 117.892,189.219 117.923,190.209 L117.923,190.209 Z" id="Shape"></path>
                    <path d="M54.709,182.312 C52.425,192.656 49.975,202.72 47.059,212.907 C44.149,223.069 41.625,233.102 40.339,243.609 C37.65,265.584 38.491,287.729 42.021,309.553 C45.472,330.895 51.353,351.952 58.228,372.426 C61.607,382.489 65.117,392.501 68.005,402.721 C70.854,412.799 73.702,424.04 73.034,434.608 C72.685,440.124 81.539,436.281 81.823,431.791 C82.062,427.999 79.143,425.132 76.195,423.328 C74.084,422.036 70.86,424.765 71.099,426.992 C71.361,429.441 73.12,432.284 73.034,434.608 C72.827,440.165 81.655,436.309 81.823,431.791 C82.176,422.282 79.801,412.353 77.484,403.198 C74.881,392.912 71.322,382.883 67.89,372.854 C60.715,351.884 54.447,330.504 50.596,308.654 C46.779,286.997 45.905,264.85 48.175,242.974 C49.261,232.514 51.502,222.489 54.173,212.33 C56.736,202.582 59.498,191.696 58.383,181.569 C58.129,179.25 55.05,180.77 54.709,182.312 L54.709,182.312 Z" id="Shape"></path>
                    <path d="M13.895,13.931 C14.033,17.399 13.395,21.266 13.237,24.756 C13.08,28.24 13.506,31.836 13.705,35.315 C14.142,42.961 14.818,50.592 15.543,58.215 C16.974,73.248 19.101,88.176 22.225,102.955 C25.309,117.543 29.326,131.864 34.56,145.832 C39.575,159.214 46.628,171.582 51.371,185.026 C53.918,183.207 56.467,181.388 59.015,179.569 C57.953,177.826 56.668,177.94 54.799,177.754 C52.879,177.562 50.196,179.3 50.514,181.514 C50.608,182.166 51.148,183.92 51.174,184.076 C52.095,189.533 60.565,185.699 59.706,181.341 C58.599,175.734 55.329,170.469 52.705,165.43 C49.224,158.747 46.002,152.002 43.126,145.034 C37.46,131.307 33.209,117.02 29.719,102.6 C26.172,87.949 23.728,73.016 21.574,58.104 C20.488,50.582 19.681,43.025 18.793,35.477 C18.388,32.032 18.006,28.583 17.594,25.138 C17.127,21.236 15.585,17.376 15.192,13.516 C15.104,12.672 13.868,13.27 13.895,13.931 L13.895,13.931 Z" id="Shape"></path>
                    <path d="M38.737,520.508 C33.034,525.112 27.466,530.143 20.16,532.107 C18.5,532.553 16.721,534.282 16.47,536.03 C14.637,548.792 26.293,555.798 37.449,556.085 C49.052,556.384 61.754,549.331 66.002,538.272 C64.363,539.454 62.724,540.635 61.085,541.817 C75.181,541.766 86.619,539.032 96.727,528.733 C102.548,522.801 107.46,516.143 113.621,510.518 C120.484,504.251 128.462,499.821 137.372,497.223 C136.846,494.684 136.318,492.144 135.792,489.604 C133.202,491.169 130.563,492.609 128.065,494.327 C126.031,495.727 124.615,499.758 128.37,499.745 C132.186,499.732 135.271,498.679 138.512,496.72 C142.311,494.424 142.734,487.409 136.932,489.101 C120.851,493.789 108.46,504.016 97.647,516.476 C93.077,521.74 88.795,527.221 82.481,530.472 C76.682,533.457 69.245,533.207 62.923,533.236 C60.987,533.245 58.676,534.998 58.006,536.781 C55.104,544.493 46.991,547.599 39.242,547.719 C35.544,547.777 31.991,546.551 28.983,544.461 C25.278,541.887 24.981,537.549 24.139,533.561 C23.281,535.332 22.422,537.106 21.564,538.877 C28.531,535.206 39.025,529.906 40.501,521.139 C40.698,519.97 39.41,519.964 38.737,520.508 L38.737,520.508 Z" id="Shape"></path>
                    <path d="M75.497,426.485 C74.302,430.714 74.272,434.948 72.468,439.05 C70.837,442.76 68.141,445.936 65.164,448.633 C58.589,454.588 50.342,458.517 42.444,462.384 C30.344,468.309 7.252,477.406 7.011,493.873 C6.941,498.72 14.067,496.148 15.144,493.215 C17.703,486.242 21.499,482.415 27.865,478.483 C35.857,473.546 44.53,469.756 52.737,465.198 C60.67,460.792 68.545,455.555 74.013,448.181 C78.168,442.577 81.862,432.016 77.343,425.658 C76.783,424.871 75.66,425.903 75.497,426.485 L75.497,426.485 Z" id="Shape"></path>
                    <path d="M34.359,505.501 C23.999,510.389 8.946,516.451 9.468,530.302 C9.678,535.891 18.359,532.035 18.189,527.507 C17.845,518.383 30.562,513.227 35.376,506.659 C36.002,505.805 35.247,505.083 34.359,505.501 L34.359,505.501 Z" id="Shape"></path>
                    <path d="M25.895,494.93 C23.465,494.973 20.888,497.094 18.947,498.372 C15.938,500.354 12.961,502.351 10.114,504.565 C6.702,507.22 -1.018,515.862 5.539,518.396 C8.677,519.61 12.714,516.4 11.696,512.994 C12.534,515.8 11.886,512.086 11.79,512.751 C11.732,513.153 12.116,512.402 12.575,511.845 C14.189,509.883 16.37,508.21 18.295,506.557 C20.751,504.448 27.813,499.733 27.036,495.85 C26.909,495.223 26.546,494.918 25.895,494.93 L25.895,494.93 Z" id="Shape"></path>
                    <path d="M21.754,490.335 C13.732,488.695 4.868,493.061 1.113,500.237 C-1.782,505.77 7.22,506.63 8.954,501.7 C10.709,496.708 17.188,495.068 21.537,492.996 C22.493,492.541 23.213,490.634 21.754,490.335 L21.754,490.335 Z" id="Shape"></path>
                    <path d="M140.28,0.579 C136.101,23.632 135.211,47.329 132.47,70.647 C129.631,94.805 125.937,118.856 122.192,142.887 C120.643,152.821 119.129,162.736 117.853,172.707 C116.635,182.225 115.141,192.515 109.914,200.77 C106.459,206.227 100.41,208.819 94.597,211.184 C91.784,212.328 88.907,213.313 86.008,214.214 C84.826,214.58 83.634,214.909 82.436,215.215 C80.357,215.743 81.854,214.983 83.048,216.25 C80.374,213.413 74.521,218.586 77.175,221.403 C79.724,224.109 87.287,220.448 89.947,219.543 C96.991,217.147 103.954,214.117 109.96,209.68 C116.461,204.876 119.622,196.073 121.696,188.609 C124.528,178.419 125.019,167.682 126.63,157.267 C130.723,130.806 134.818,104.346 138.047,77.763 C139.617,64.846 140.924,51.909 141.839,38.929 C142.279,32.688 142.611,26.424 142.778,20.17 C142.962,13.289 142.339,7.111 141.278,0.377 C141.183,-0.232 140.36,0.135 140.28,0.579 L140.28,0.579 Z" id="Shape"></path>
                    <path d="M116.169,414.721 C112.312,419.823 114.551,427.351 116.299,432.849 C118.79,440.679 122.349,448.138 125.778,455.586 C128.992,462.566 132.225,469.602 134.266,477.031 C135.034,479.823 135.381,482.691 135.287,485.585 C135.205,488.108 133.158,490.723 135.152,492.995 C135.946,493.9 137.165,493.879 138.229,493.599 C144.459,491.955 144.581,483.262 143.956,478.17 C143.039,470.695 139.865,463.538 136.823,456.73 C133.274,448.787 129.345,441.013 126.018,432.971 C124.488,429.271 123.238,425.465 122.056,421.643 C121.239,418.994 120.542,415.747 118.173,414.055 C117.539,413.601 116.55,414.218 116.169,414.721 L116.169,414.721 Z" id="Shape"></path>
                </g>
            </g>
        </g>
    </g>
</svg>
